X: 1
T: Mrs. Robertson Grishornish
M: 4/4
L: 1/8
R: strathspey
K: Dmix
e |: dB B<d BA FA | a>f fe de/2f/2 e<d | B2 B<d B<A FA | affe d2 d e:|
defg agfe | baff edef | defg a<g f<f | b>a g<f f<e d<d |
efga gffb | afed e<f f2 | edBB dBAF | Aa ff e2 d2 |]
